X:207 
T:Tom Billy's  
B:CRE3.013 (Port Tom Billy)
F:file ID: cre.3/207tom_b_J
N:Nice setting with "piperly" ornamentation.
R:jig
Q:160
M:6/8
L:1/8
K:D
"A modal"
efg|:a3 ece|edB BAA|eaa ece|dcB Ace|
"5"~a3 ece|edB BAB|GBd gfe|fdB Ace:|
"9"|:g3 a3|bag fed|faf g2e|fdB def|
"13"gfg a3|bge gab|1 age dBG|
"16"Ac/B/A Ace:|2 "15a"age dBe|"16a"Ac/B/A ag/e/d||
|:"17"c3 edd|ecA dBA|Ac/B/A cBA|AB/c/A ag/e/d|
"21"c3 edc|ede gab|age dBe|
[1 Ac/B/A ag/e/d:|2 Ac/B/A Ace||"final" A6||

%%%

